X:1
T: Gallagher's Best
C:
R:Reel
Q: 232
K:Em
M:4/4
L:1/8
|:dc|BE ((3EEE) GE BE|BE ((3EEE) B2 AF|D2 ((3FED) AD ((3FED)|FA d^c BA FA|
BE ((3EEE) GE BE|BE ((3EEE) B2 AF|D2 ((3FED) AD ((3FED)|FA d^c BA FA|
Bd ef ef ed|Bd ef gf ed|B^c de dc dB|AF dF EF GA|
Bd ef ef ed|Bd ef gf ed|fa ef de fd|Bd AF E2:|
